X: 20052
T: the Merry Meeting
%R: jig
B: James Oswald "The Caledonian Pocket Companion" v.2 p.5 #2
Z: 2019 John Chambers <jc:trillian.mit.edu>
M: 6/8
L: 1/8
K: D
"_Brisk"B |\
ADD TF2E | TF2E D2f | Te2d Tc2d | eAA A2B |\
AFD TF2E | TF2E D2f | fed Adc | d3- d2 :|
|: f |\
ecA Tc2d | e2f g3 | BcB efd | Tc3 A2(f/g/) |\
add gcc | fBB eAA | dGG cFF | BEE EdB |
AFD TF2E | TF2E D2f | Te2d Tc2d | ecA AdB |\
ADD TF2E | TF2E D2g | Tf>ed eAc | d3- d2 :|
